X:1
T:The Last Lovely Morning
T:The Last Lovely Morning
T:Harmonized by Joseph P. Powell, 1875
T:Anonymous, 1843
T:Public Domain Courtesy of the Cyber Hymnal™
C:Harmonized by Joseph P. Powell, 1875
Z:Public Domain
Z:Courtesy of the Cyber Hymnal™
%%score ( 1 2 ) ( 3 4 )
L:1/8
Q:1/4=105
M:4/4
K:G
V:1 treble 
V:2 treble 
V:3 bass 
V:4 bass 
V:1
 D2 | [DG]2 [GB]4 ([FA]G) | (AB) [Ec]4 ([GB][FA]) | [GB]2 [DG]4 [DFA]2 | [DG]6 D2 | %5
w: 1.~The|last love- ly *|morn- * ing, All *|bloom- ing and|fair, Is|
w: 2.~And|when that bright *|morn- * ing In *|splen- dor shall|dawn, Our|
w: 3.~The|Bride- groom from *|glo- * ry To *|earth shall des-|cend, Ten|
w: 4.~The|grave shall be *|o- * pened, The *|dead shall a-|rise, And|
w: 5.~The|saints, then im- *|mor- * tal, In *|glo- ry shall|reign, The|
 [DG]2 [GB]4 ([FA]G) | (AB) [Ec]4 ([GB][FA]) | [GB]2 [DG]4 [DFA]2 | [DG]6 ||"^Refrain" [GB]>[Gc] | %10
w: fast on- ward *|fleet- * ing, And *|soon will ap-|pear.||
w: tears shall be *|end- * ed, Our *|sor- rows all|gone.||
w: thou- sand bright *|an- * gels A- *|round Him at-|tend.||
w: with the Re- *|deem- * er Mount *|up to the|skies.||
w: Bride with the *|Bride- * groom For- *|ev- er re-|main.||
 [Gd]3 [Gc] [GB]>[GA] [GB]>[Fc] | [Gd]6 z2 | [GB]2 (cd) (ed) (cB) | ([GB]4 [FA]2) D2 | %14
w: ||||
w: ||||
w: ||||
w: ||||
w: ||||
 [DG]2 [GB]4 ([FA]G) | (AB) [Ec]4 ([GB][FA]) | [GB]2 [DG]4 [DFA]2 | [DG]6 |] %18
w: ||||
w: ||||
w: ||||
w: ||||
w: ||||
V:2
 D2 | x7 G | D2 x6 | x8 | x6 D2 | x7 G | D2 x6 | x8 | x6 || x2 | x8 | x8 | x2 G2 G2 G2 | x6 D2 | %14
 x7 G | D2 x6 | x8 | x6 |] %18
V:3
 [G,B,]2 | [G,B,]2 [G,D]4 (CB,) | ([F,C] G,) [C,G,]4 [D,D]2 | [G,D]2 [G,B,]4 [D,C]2 | %4
w: ||||
 [G,,G,B,]6 [G,B,]2 | [G,B,]2 [G,D]4 (CB,) | ([F,C] G,) [C,G,]4 [D,D]2 | [G,D]2 [G,B,]4 [D,C]2 | %8
w: ||||
 [G,,G,B,]6 || [G,D]>[A,D] | [B,D]3 [A,D] [G,D]>[F,E] [G,D]>[A,D] | [B,D]6 z2 | %12
w: |While the|might- y, might- y, might- y|trump|
 [G,D]2 [G,B,]2 (CB,) (ED) | [D,D]6 [G,B,]2 | [G,B,]2 [G,D]4 (CB,) | ([F,C] G,) [C,G,]4 [D,D]2 | %16
w: Sounds, “Come, come * a- *|way”; Oh,|let us be *|rea- * dy To|
 [G,D]2 [G,B,]4 [D,C]2 | [G,,G,B,]6 |] %18
w: hail the glad|day.|
V:4
 x2 | x6 D,2 | x G, x6 | x8 | x8 | x6 D,2 | x G, x6 | x8 | x6 || x2 | x8 | x8 | x4 G,2 G,2 | x8 | %14
 x6 D,2 | x G, x6 | x8 | x6 |] %18

